icons/cypressfiles.svg

<!--
  - The MIT License (MIT)
  -
  - Copyright (c) 2015-2024 Elior "Mallowigi" Boukhobza
  -
  - Permission is hereby granted, free of charge, to any person obtaining a copy
  - of this software and associated documentation files (the "Software"), to deal
  - in the Software without restriction, including without limitation the rights
  - to use, copy, modify, merge, publish, distribute, sublicense, and/or sell
  - copies of the Software, and to permit persons to whom the Software is
  - furnished to do so, subject to the following conditions:
  -
  - The above copyright notice and this permission notice shall be included in all
  - copies or substantial portions of the Software.
  -
  - THE SOFTWARE IS PROVIDED "AS IS", WITHOUT WARRANTY OF ANY KIND, EXPRESS OR
  - IMPLIED, INCLUDING BUT NOT LIMITED TO THE WARRANTIES OF MERCHANTABILITY,
  - FITNESS FOR A PARTICULAR PURPOSE AND NONINFRINGEMENT. IN NO EVENT SHALL THE
  - AUTHORS OR COPYRIGHT HOLDERS BE LIABLE FOR ANY CLAIM, DAMAGES OR OTHER
  - LIABILITY, WHETHER IN AN ACTION OF CONTRACT, TORT OR OTHERWISE, ARISING FROM,
  - OUT OF OR IN CONNECTION WITH THE SOFTWARE OR THE USE OR OTHER DEALINGS IN THE
  - SOFTWARE.
  -
  -->

<svg  width="16px" height="16px" viewBox="0 0 200 200" version="1.1" xmlns="http://www.w3.org/2000/svg">
  <defs>
    <mask id="Mask">
      <circle cx="90" cy="90" r="86" fill="white"/>
      <path
          d="M64,56 C71.5490744,56 78.4876056,58.7774238 83.9597969,63.4229874 L75.9013457,74.4302155 C73.151103,71.0556355 69.5027384,69 65.5,69 C56.9395864,69 50,78.4020203 50,90 C50,101.59798 56.9395864,111 65.5,111 C69.8072991,111 73.7042455,108.619645 76.5132895,104.776905 L84.2559877,116.322496 C78.739004,121.120951 71.6859434,124 64,124 C46.326888,124 32,108.777681 32,90 C32,71.2223185 46.326888,56 64,56 Z"
          id="C" fill="black">
      </path>
      <path
          d="M85.5,58.5874023 L103.203613,58.5874023 L115.477051,109.667969 L129.157715,58.5874023 L147.118652,58.5874023 L123.617188,128.739258 C122.775391,130.755859 121.020508,133.252604 118.352539,136.229492 C114.350586,140.694824 113.276198,140.816073 109.259277,143.235352 C105.242356,145.65463 104.953681,145.72072 100.856934,146.766602 C98.1257683,147.463856 95.3404493,147.712879 92.5009766,147.513672 L90,136.229492 C94.2547967,135.295813 97.6177524,134.291744 100.088867,133.217285 C102.559982,132.142827 104.939214,130.650151 107.226562,128.739258 L85.5,58.5874023 Z"
          id="Y" fill="black">
      </path>
    </mask>
  </defs>
  <g fill="#58cf9d" data-iconColor="Cypress Files" transform="translate(10.000000, 10.000000)" mask="url(#Mask)">
    <circle cx="90" cy="90" r="86">
    </circle>
    <path
        d="M64,56 C71.5490744,56 78.4876056,58.7774238 83.9597969,63.4229874 L75.9013457,74.4302155 C73.151103,71.0556355 69.5027384,69 65.5,69 C56.9395864,69 50,78.4020203 50,90 C50,101.59798 56.9395864,111 65.5,111 C69.8072991,111 73.7042455,108.619645 76.5132895,104.776905 L84.2559877,116.322496 C78.739004,121.120951 71.6859434,124 64,124 C46.326888,124 32,108.777681 32,90 C32,71.2223185 46.326888,56 64,56 Z"
        id="C" fill="#FFFFFF">
    </path>
    <path
        d="M85.5,58.5874023 L103.203613,58.5874023 L115.477051,109.667969 L129.157715,58.5874023 L147.118652,58.5874023 L123.617188,128.739258 C122.775391,130.755859 121.020508,133.252604 118.352539,136.229492 C114.350586,140.694824 113.276198,140.816073 109.259277,143.235352 C105.242356,145.65463 104.953681,145.72072 100.856934,146.766602 C98.1257683,147.463856 95.3404493,147.712879 92.5009766,147.513672 L90,136.229492 C94.2547967,135.295813 97.6177524,134.291744 100.088867,133.217285 C102.559982,132.142827 104.939214,130.650151 107.226562,128.739258 L85.5,58.5874023 Z"
        id="Y" fill="#FFFFFF">
    </path>
  </g>
</svg>

<svg xmlns="http://www.w3.org/2000/svg" xmlns:xlink="http://www.w3.org/1999/xlink" viewBox="0 0 200 200"><defs><mask id="a"><circle cx="90" cy="90" r="86" fill="#fff"/><path d="M64 56c7.55 0 14.488 2.777 19.96 7.423L75.9 74.43C73.151 71.056 69.503 69 65.5 69 56.94 69 50 78.402 50 90s6.94 21 15.5 21c4.307 0 8.204-2.38 11.013-6.223l7.743 11.545C78.739 121.121 71.686 124 64 124c-17.673 0-32-15.222-32-34s14.327-34 32-34m21.5 2.587h17.704l12.273 51.081 13.68-51.08h17.962l-23.502 70.151q-1.263 3.026-5.264 7.49c-4.002 4.466-5.077 4.587-9.094 7.006s-4.305 2.486-8.402 3.532a26.2 26.2 0 0 1-8.356.747L90 136.229q6.382-1.4 10.089-3.012 3.706-1.611 7.138-4.478z"/></mask></defs><g fill="#58cf9d" data-iconColor="Cypress Files" mask="url(#a)" transform="translate(10 10)"><circle cx="90" cy="90" r="86"/><path fill="#fff" d="M64 56c7.55 0 14.488 2.777 19.96 7.423L75.9 74.43C73.151 71.056 69.503 69 65.5 69 56.94 69 50 78.402 50 90s6.94 21 15.5 21c4.307 0 8.204-2.38 11.013-6.223l7.743 11.545C78.739 121.121 71.686 124 64 124c-17.673 0-32-15.222-32-34s14.327-34 32-34m21.5 2.587h17.704l12.273 51.081 13.68-51.08h17.962l-23.502 70.151q-1.263 3.026-5.264 7.49c-4.002 4.466-5.077 4.587-9.094 7.006s-4.305 2.486-8.402 3.532a26.2 26.2 0 0 1-8.356.747L90 136.229q6.382-1.4 10.089-3.012 3.706-1.611 7.138-4.478z"/></g></svg>
